X:1
T:Title
%%score { 1 | 2 }
L:1/8
Q:1/4=100
M:3/4
K:Ab
V:1 treble nm="Grand Piano"
V:2 bass 
V:1
 [CE]2 [EA]2 B2 | c2 c3 [EA] | [DB]2 [FA]2 [DF]2 | [CE]6 | E2 G2 A2 | B2 B3 B | c2 B2 A2 | B6 | %8
w: Robert~Lowry * *||||||||
 c2 c2 c2 | [Fd]2 [Fd]3 [Fc] | [FB]2 [FB]2 [FA]2 | [EG]6 | [EA]2 [EB]2 [Ec]2 | [DB]2 [FA]3 F | %14
w: ||||||
 E2 A2 G2 | [CA]6 |] %16
w: ||
V:2
 [A,,A,]2 [C,A,]2 [E,G,E]2 | [A,E]2 [A,E]3 [C,A,] | [D,F,]2 [D,A,]2 [D,A,]2 | [A,,A,]6 | %4
 [E,G,D]2 [E,B,D]2 [E,A,C]2 | [E,G,E]2 [E,G,E]3 [E,G,E] | [A,E]2 [G,B,E]2 [F,B,=D]2 | [E,G,E]6 | %8
 [A,E]2 [G,B,=E]2 [F,A,F]2 | [B,,B,]2 [B,,B,]3 [C,=A,] | [D,B,]2 [D,B,]2 [=D,B,]2 | [E,B,]6 | %12
 [C,A,]2 [B,,G,]2 [A,,A,]2 | [D,F,]2 [D,A,]3 [D,A,D] | [E,A,C]2 [E,CE]2 [E,B,D]2 | [A,,A,]6 |] %16

